X: 2
T: Mylecharaine's March
Z: manxygirl
S: https://thesession.org/tunes/11795#setting22077
R: waltz
M: 3/4
L: 1/8
K: Gmaj
G>F | G2 D2 G2 | G4 B>A | G2 F2 E2 | D4 A>B | c2 B2 A2 | G2 F2 G2 | A4 F>G |
A2 D2 B2 | A4 F>G | A2 A2 B2 | c4 AA | d2 cB AG | D2 G2 F2 | G4 ||
